X: 34
T:The History Man
M:4/4
L:1/8
C:Andy Cutting
R:Schottische
N:Posted to uk.music.folk 5th June 2004
Z:Steve Mansfield
K:G
BA |: G3A BAGA | BGd2 de/d/BA | G3A BAGA | BGdB A2BA |
G3A BAGA | BGd2 de/d/Bd | e3f edBG | AGAB AGEG |
c3B AGEG | AGAB AGEG |1A4-A2 B/c/B/A/ :|2 A3A AGAB |: c3d efg2 |
g/a/gfe d2Bd | efg2 gagf | e4-e2 Bd | efg2 f2ed |
B2Bd BAGF | GAB(A A)B/A/GF |1 G3A AGAB :|2 G4-G2 ||

